build/img/showroom.svg

<svg width="73" height="39" viewBox="0 0 73 39" fill="none" xmlns="http://www.w3.org/2000/svg">
<g clip-path="url(#clip0)">
<path d="M38.35 11.0871V11.0694C38.35 11.063 38.35 11.0564 38.35 11.05C38.35 11.0437 38.3456 11.0351 38.3456 11.0272C38.3443 10.957 38.3319 10.8875 38.3084 10.8212L34.7249 1.26097C34.438 0.500835 33.7093 -0.00189891 32.8964 5.39118e-06H6.10361C5.28826 -0.00189891 4.55796 0.503374 4.27263 1.267L0.691602 10.8218C0.668115 10.8881 0.655737 10.9576 0.654468 11.0278C0.654468 11.0357 0.650024 11.0421 0.650024 11.0506V11.0703V11.0878V11.1125V11.1392C0.677319 13.2244 1.96082 15.0871 3.90002 15.8549V37.05C3.90002 38.1269 4.77314 39 5.85002 39H33.15C34.2269 39 35.1 38.1269 35.1 37.05V15.8549C37.0364 15.0846 38.317 13.2222 38.3427 11.1386C38.3427 11.1294 38.3427 11.1208 38.3427 11.1119C38.3427 11.1027 38.35 11.0954 38.35 11.0871ZM27.8961 11.7C27.5803 13.578 25.9543 14.9535 24.05 14.9535C22.1457 14.9535 20.5198 13.578 20.204 11.7H27.8961ZM18.7961 11.7C18.4803 13.578 16.8543 14.9535 14.95 14.9535C13.0457 14.9535 11.4198 13.578 11.104 11.7H18.7961ZM2.00334 11.7H9.69163C9.69163 11.7137 9.6875 11.7273 9.68496 11.7409C9.64973 11.9387 9.59863 12.1332 9.5323 12.3227C9.52087 12.3548 9.50945 12.3865 9.49707 12.4182C9.4282 12.6052 9.34441 12.7861 9.24697 12.9597C9.23396 12.9825 9.21904 13.0044 9.20603 13.0248C9.10193 13.2034 8.98355 13.3732 8.85247 13.5329L8.84517 13.5415C8.71218 13.6995 8.56714 13.8465 8.41099 13.9814L8.36306 14.0258C8.2104 14.1534 8.04854 14.2692 7.87874 14.3721L7.79431 14.4235C7.62356 14.5215 7.44614 14.6066 7.26301 14.6783C7.23127 14.6907 7.19827 14.7018 7.16748 14.7136C6.97705 14.7827 6.78154 14.8373 6.58254 14.8761C6.55652 14.8811 6.53049 14.8837 6.50447 14.8881C6.28865 14.9272 6.06965 14.9478 5.85002 14.95C3.94636 14.9506 2.32073 13.577 2.00334 11.7ZM33.8 37.05C33.8 37.409 33.509 37.7 33.15 37.7H27.3V21.45C27.3 20.3731 26.4269 19.5 25.35 19.5H13.65C12.5731 19.5 11.7 20.3731 11.7 21.45V37.7H5.85002C5.49106 37.7 5.20002 37.409 5.20002 37.05V16.2097C5.41553 16.2367 5.63262 16.25 5.85002 16.25C6.02078 16.25 6.19153 16.2411 6.36165 16.224C6.41814 16.2189 6.47336 16.2078 6.52922 16.2005C6.63967 16.1856 6.75107 16.1713 6.85962 16.15C6.92437 16.137 6.98943 16.1192 7.05449 16.1043C7.15129 16.0812 7.24937 16.0583 7.34299 16.0297C7.40806 16.0094 7.47312 15.9863 7.53818 15.9647C7.62705 15.9336 7.71624 15.8996 7.8032 15.8672C7.86826 15.8406 7.93333 15.8107 7.99839 15.7806C8.08091 15.7431 8.16343 15.7047 8.24404 15.6625C8.30911 15.6292 8.37385 15.5937 8.4332 15.5578C8.51128 15.513 8.58713 15.4667 8.66267 15.4181C8.72297 15.3791 8.78296 15.3382 8.84199 15.2966C8.91467 15.2452 8.98577 15.1919 9.05527 15.1373C9.1124 15.0925 9.16826 15.0474 9.22285 15.0008C9.29109 14.9421 9.35679 14.8818 9.42185 14.8199C9.47327 14.7713 9.525 14.7224 9.57451 14.6717C9.63958 14.6069 9.69797 14.538 9.75859 14.4689C9.80398 14.4171 9.85064 14.3657 9.89443 14.3124C9.9541 14.2381 10.0093 14.161 10.0652 14.0835C10.1036 14.0302 10.1433 13.9788 10.1798 13.9242C10.2375 13.8373 10.2902 13.7462 10.3435 13.6551C10.3616 13.624 10.3819 13.5948 10.3994 13.563C11.3128 15.221 13.0562 16.251 14.9494 16.251C16.8426 16.251 18.586 15.221 19.4994 13.563C20.4128 15.221 22.1562 16.251 24.0494 16.251C25.9426 16.251 27.686 15.221 28.5994 13.563C28.6168 13.5948 28.6372 13.624 28.6553 13.6551C28.7086 13.7462 28.7613 13.8373 28.819 13.9242C28.8555 13.9788 28.8952 14.0302 28.9336 14.0835C28.9895 14.161 29.0447 14.2381 29.1043 14.3124C29.1478 14.3657 29.1948 14.4171 29.2402 14.4689C29.3008 14.538 29.3605 14.6063 29.4243 14.6717C29.4738 14.7224 29.5255 14.7713 29.5769 14.8199C29.642 14.8849 29.7071 14.9421 29.7759 15.0008C29.8305 15.0474 29.8864 15.0925 29.9435 15.1373C30.013 15.1919 30.0841 15.2452 30.1568 15.2966C30.2158 15.3382 30.2758 15.3791 30.3361 15.4181C30.4116 15.4667 30.4875 15.513 30.5656 15.5578C30.6306 15.5937 30.6909 15.6292 30.7547 15.6625C30.8354 15.7047 30.9179 15.7431 31.0004 15.7806C31.0655 15.8107 31.1305 15.8406 31.1956 15.8672C31.2825 15.9028 31.3717 15.9323 31.4606 15.9647C31.5257 15.9875 31.5907 16.0107 31.6558 16.0297C31.7507 16.0583 31.8507 16.0812 31.9443 16.1043C32.0094 16.1192 32.0744 16.137 32.1392 16.15C32.2477 16.1713 32.3591 16.1856 32.4696 16.2005C32.5254 16.2078 32.5806 16.2189 32.6371 16.224C32.8076 16.2411 32.9786 16.25 33.15 16.25C33.3674 16.25 33.5845 16.2367 33.8 16.2097V37.05ZM34.2621 14.7888C33.9013 14.897 33.5268 14.9513 33.15 14.95C32.9307 14.9484 32.7117 14.9287 32.4956 14.891C32.4696 14.8862 32.4435 14.8837 32.4175 14.8786C32.2185 14.8399 32.023 14.7856 31.8326 14.7161C31.8005 14.7043 31.7675 14.6932 31.737 14.6809C31.5539 14.6091 31.3765 14.5241 31.2057 14.426L31.1213 14.3749C30.9515 14.2718 30.7896 14.1559 30.637 14.0283L30.5891 13.9842C30.4329 13.849 30.2879 13.7021 30.1549 13.544L30.1476 13.5357C30.0165 13.3758 29.8981 13.206 29.794 13.0273C29.781 13.0044 29.7661 12.9825 29.7531 12.9622C29.6556 12.7886 29.5719 12.6077 29.503 12.4208C29.4903 12.3894 29.4785 12.3573 29.4678 12.3252C29.4014 12.1358 29.3503 11.9412 29.3151 11.7435C29.3151 11.7298 29.3113 11.7162 29.3084 11.7025H36.9967C36.7555 13.172 35.6919 14.3724 34.2621 14.7888Z" fill="white"/>
</g>
<path d="M60.5 4C55.5076 4 51.446 8.06162 51.446 13.054C51.446 19.2497 59.5484 28.3454 59.8934 28.7295C60.2174 29.0904 60.7832 29.0898 61.1066 28.7295C61.4516 28.3454 69.5541 19.2497 69.5541 13.054C69.554 8.06162 65.4924 4 60.5 4ZM60.5 17.6093C57.9882 17.6093 55.9447 15.5658 55.9447 13.054C55.9447 10.5422 57.9882 8.49873 60.5 8.49873C63.0118 8.49873 65.0552 10.5422 65.0552 13.0541C65.0552 15.5659 63.0118 17.6093 60.5 17.6093Z" fill="white"/>
<ellipse cx="60" cy="32.5" rx="10" ry="1.5" fill="white"/>
<defs>
<clipPath id="clip0">
<rect width="39" height="39" fill="white"/>
</clipPath>
</defs>
</svg>

<svg width="73" height="39" fill="none" xmlns="http://www.w3.org/2000/svg"><g clip-path="url(#clip0)"><path d="M38.35 11.087v-.037c0-.006-.004-.015-.004-.023a.652.652 0 0 0-.038-.206l-3.583-9.56A1.95 1.95 0 0 0 32.896 0H6.104a1.95 1.95 0 0 0-1.831 1.267L.692 10.822a.652.652 0 0 0-.038.206c0 .008-.004.014-.004.023v.088a5.144 5.144 0 0 0 3.25 4.716V37.05A1.95 1.95 0 0 0 5.85 39h27.3a1.95 1.95 0 0 0 1.95-1.95V15.855a5.144 5.144 0 0 0 3.243-4.716v-.027c0-.01.007-.017.007-.025zm-10.454.613a3.9 3.9 0 0 1-7.692 0h7.692zm-9.1 0a3.9 3.9 0 0 1-7.692 0h7.692zm-16.793 0h7.689c0 .014-.005.027-.007.04a3.753 3.753 0 0 1-.188.678 3.764 3.764 0 0 1-.25.542l-.041.065a3.883 3.883 0 0 1-.354.508l-.007.008a3.9 3.9 0 0 1-.434.44l-.048.045a3.936 3.936 0 0 1-.484.346l-.085.052a3.86 3.86 0 0 1-.531.254l-.096.036c-.19.069-.385.123-.584.162-.026.005-.053.008-.079.012a3.89 3.89 0 0 1-.654.062 3.9 3.9 0 0 1-3.847-3.25zM33.8 37.05a.65.65 0 0 1-.65.65H27.3V21.45a1.95 1.95 0 0 0-1.95-1.95h-11.7a1.95 1.95 0 0 0-1.95 1.95V37.7H5.85a.65.65 0 0 1-.65-.65V16.21a5.229 5.229 0 0 0 1.162.014c.056-.005.111-.016.167-.023.11-.015.222-.03.33-.051.065-.013.13-.03.195-.046.097-.023.195-.046.289-.074.065-.02.13-.044.195-.065.089-.031.178-.065.265-.098.065-.026.13-.056.195-.086a4.892 4.892 0 0 0 1.057-.644 5.192 5.192 0 0 0 .52-.465c.065-.065.123-.134.184-.203.045-.052.092-.103.135-.157.06-.074.115-.151.171-.228.039-.054.078-.105.115-.16.058-.087.11-.178.164-.269.018-.031.038-.06.055-.092a5.195 5.195 0 0 0 9.1 0 5.195 5.195 0 0 0 9.1 0c.018.032.038.061.056.092.054.091.106.182.164.27.037.054.076.105.115.159.055.077.11.154.17.228.044.054.09.105.136.157.06.069.12.137.184.203.05.05.102.1.153.148a5.236 5.236 0 0 0 .989.738c.065.036.125.071.189.104.08.043.163.081.245.119.066.03.13.06.196.086.086.036.176.065.265.098.065.023.13.046.195.065.095.028.195.051.288.074.065.015.13.033.195.046.109.021.22.036.33.05.056.008.112.019.168.024a5.137 5.137 0 0 0 1.163-.014v20.84zm.462-22.261a3.824 3.824 0 0 1-1.766.102c-.026-.005-.053-.007-.079-.012a3.847 3.847 0 0 1-.584-.163l-.096-.035a3.992 3.992 0 0 1-.531-.255l-.085-.051a3.955 3.955 0 0 1-.484-.347l-.048-.044a3.915 3.915 0 0 1-.434-.44l-.007-.008c-.131-.16-.25-.33-.354-.509l-.04-.065a3.765 3.765 0 0 1-.286-.637 3.74 3.74 0 0 1-.153-.582c0-.013-.004-.027-.007-.04h7.689a3.867 3.867 0 0 1-2.735 3.086z" fill="#fff"/></g><path d="M60.5 4c-4.992 0-9.054 4.062-9.054 9.054 0 6.196 8.102 15.291 8.447 15.676.324.36.89.36 1.214 0 .345-.385 8.447-9.48 8.447-15.676C69.554 8.062 65.492 4 60.5 4zm0 13.61a4.56 4.56 0 0 1-4.555-4.556A4.56 4.56 0 0 1 60.5 8.499a4.56 4.56 0 0 1 4.555 4.555A4.56 4.56 0 0 1 60.5 17.61z" fill="#fff"/><ellipse cx="60" cy="32.5" rx="10" ry="1.5" fill="#fff"/><defs><clipPath id="clip0"><path fill="#fff" d="M0 0h39v39H0z"/></clipPath></defs></svg>
